X: 4
T:Andy De Jarlis' Jig
M:6/8
L:1/8
S:Transcribed from the Altan version by S.C.
R:jig
D:Altan: Island Angel
Z:id:hn-jig-325
K:E 
E-GB E-GB|E-GB "Slide"{=c}[E2c2]B|E-GB E-GB|=D-FA B2A|E-GB E-GB|E-GB {=c
}[E2c2]a|!
g-fe B-cd|1 e-fe e3:|2 e-fe e2a|||:g-fg e-fg|a-ga c2e|!
~f3 g-fe|d-cd e-fe|gbg efg|a-ga c2e|f-gf B-cd|1 e-fe e2a:|2 [B3e3] [B3e3
]||
